X: 3219
T: ULSTER BOYS
%R: jig
B: James Kerr "Merry Melodies" v.3 p.25 #2__
Z: 2016 John Chambers <jc:trillian.mit.edu>
M: 6/8
L: 1/8
K: A
|:\
vA2vc ecA | B2A GFE |\
A2c ecA | dBG A3 H:|\
cAc efg | agf efd |\
cAc efg | agf e3 |\
cAc efg | agf edc |\
ded cBA | BcA GFE |]

%%sep 1 1 500
%%sep 1 1 500

